svg/create_new.svg

<svg xmlns="http://www.w3.org/2000/svg" viewBox="0 0 32 32" enable-background="new 0 0 32 32"><path d="M 25 4.03125 C 24.234835 4.03125 23.483027 4.3294733 22.90625 4.90625 L 13 14.78125 L 12.78125 15 L 12.71875 15.3125 L 12.03125 18.8125 L 11.71875 20.28125 L 13.1875 19.96875 L 16.6875 19.28125 L 17 19.21875 L 17.21875 19 L 27.09375 9.09375 C 28.247303 7.9401966 28.247303 6.0598034 27.09375 4.90625 C 26.516973 4.3294733 25.765165 4.03125 25 4.03125 z M 25 5.96875 C 25.234835 5.96875 25.464277 6.0892767 25.6875 6.3125 C 26.133947 6.7589466 26.133947 7.2410534 25.6875 7.6875 L 16 17.375 L 14.28125 17.71875 L 14.625 16 L 24.3125 6.3125 C 24.535723 6.0892767 24.765165 5.96875 25 5.96875 z M 4 8 L 4 28 L 24 28 L 24 14.8125 L 22 16.8125 L 22 26 L 6 26 L 6 10 L 15.1875 10 L 17.1875 8 L 4 8 z"/></svg>

<svg xmlns="http://www.w3.org/2000/svg" viewBox="0 0 32 32"><path d="M25 4.03c-.765 0-1.517.3-2.094.876L13 14.78l-.22.22-.06.313-.69 3.5-.31 1.468 1.467-.31 3.5-.69.313-.06.22-.22 9.874-9.906c1.153-1.154 1.153-3.034 0-4.188-.577-.577-1.33-.875-2.094-.875zm0 1.94c.235 0 .464.12.688.343.446.446.446.928 0 1.375L16 17.374l-1.72.344.345-1.72 9.688-9.688c.223-.223.452-.343.687-.343zM4 8v20h20V14.812l-2 2V26H6V10h9.188l2-2H4z"/></svg>
